src/components/ProductFeature/images/icons/cohorts.svg

<svg width="18" height="18" viewBox="0 0 18 18" fill="none" xmlns="http://www.w3.org/2000/svg">
<g clip-path="url(#clip0)">
<path d="M11.4068 12.5337C11.4068 12.5337 8.46419 11.7778 8.04875 10.9552C7.85891 10.5783 8.04524 10.0974 8.23509 9.76548C8.32158 9.64876 8.40595 9.52572 8.4875 9.39633C8.97829 8.61094 9.35305 7.57743 9.39172 6.30051C9.44937 4.37883 7.96156 2.82003 6.19528 2.81445H6.19176H6.18754C4.42199 2.82008 2.93422 4.37891 2.99182 6.30051C3.03049 7.5774 3.40526 8.61099 3.89603 9.39633H3.89533H3.89603C3.9776 9.52571 4.06267 9.64875 4.14845 9.76548C4.33759 10.0974 4.52391 10.5783 4.33478 10.9552C3.91994 11.7778 0.976705 12.5337 0.976705 12.5337C0.410695 12.7228 0.00146484 13.2586 0.00146484 13.8893V15.1866H12.3835V13.8893C12.3828 13.2586 11.9743 12.7228 11.4068 12.5337H11.4068Z" fill="#A970DC"/>
<path d="M17.2917 13.2563C17.2593 13.245 15.1486 12.7071 14.8476 12.1081C14.7084 11.8346 14.8455 11.4837 14.9833 11.2425C15.0459 11.1581 15.1071 11.0689 15.1661 10.9746C15.5233 10.4037 15.7961 9.65204 15.8242 8.72391C15.8664 7.3275 14.7836 6.19275 13.4983 6.18915H13.4955H13.4927C12.2074 6.19266 11.1239 7.3275 11.166 8.72391C11.1941 9.65202 11.4669 10.4037 11.8248 10.9746C11.8839 11.0688 11.9458 11.1581 12.0076 11.2425C12.0175 11.2601 12.0273 11.2777 12.0365 11.2953C13.0785 11.727 13.7661 12.7451 13.7661 13.8876V15.1849H18.001V14.2413C18.0003 13.7828 17.7029 13.394 17.2916 13.2562L17.2917 13.2563Z" fill="#A970DC"/>
</g>
<defs>
<clipPath id="clip0">
<rect width="18" height="18" fill="white"/>
</clipPath>
</defs>
</svg>

<svg fill="none" viewBox="0 0 18 18"><g clip-path="url(#clip0)"><path fill="#A970DC" d="M11.407 12.534s-2.943-.756-3.358-1.579c-.19-.377-.004-.858.186-1.19.087-.116.171-.24.253-.369.49-.785.865-1.819.904-3.095.057-1.922-1.43-3.481-3.197-3.487h-.007C4.422 2.82 2.934 4.38 2.992 6.301c.038 1.276.413 2.31.904 3.095.082.13.167.253.252.37.19.331.376.812.187 1.19-.415.822-3.358 1.578-3.358 1.578A1.43 1.43 0 000 13.889v1.298h12.382v-1.298a1.43 1.43 0 00-.976-1.355zm5.885.722c-.033-.011-2.143-.549-2.444-1.148-.14-.273-.003-.624.135-.866a4.1 4.1 0 00.183-.267c.357-.571.63-1.323.658-2.251.042-1.397-1.04-2.531-2.326-2.535h-.005c-1.286.004-2.37 1.138-2.327 2.535.028.928.3 1.68.659 2.25.059.095.12.184.183.268l.029.053a2.803 2.803 0 011.73 2.593v1.297H18v-.944a1.04 1.04 0 00-.71-.985z"/></g><defs><clipPath id="clip0"><path fill="#fff" d="M0 0h18v18H0z"/></clipPath></defs></svg>
